X:1
T:Title
%%score 1 { ( 2 4 ) | ( 3 5 ) }
L:1/8
M:6/4
K:F
V:1 treble nm="Akkordion"
V:2 bass nm="Grand Piano"
V:4 bass 
V:3 bass 
V:5 bass 
V:1
 z6 z4[Q:1/4=114] C2 | A2 A2 A2 B2 B2 B2 | =B2 e2 d2 c4 c2 | d2 B2 d2 c2 A2 F2 | %4
[M:5/4] F2 E2 F2 G4 |[M:1/4] C2 |[M:6/4] A2 A2 A2 B2 B2 B2 | =B2 e2 d2 c4 c2 | c2 =B2 c2 e2 c2 G2 | %9
 A2 c2 d2 c6 |[M:12/8][Q:1/4=90] z12 | z12 | z12 | z12 | z12 | z12 | z12 | z12 |[M:9/8] z9 |] %19
V:2
 z6 z4 C2 | z[K:treble] CACAC z CBCBC | z D=BDBD z CcCcC | z DBDBD z CcCAC | %4
[M:5/4] z =B,GB,G[K:bass]B, z CDE |[M:1/4] DC |[M:6/4] z[K:treble] CFCAC z CBCBC | %7
 z D=BDBD z CcCcC | z C[K:treble]ACAC z CGC[EG]C | %9
 z C[K:treble]^FC[D=F]=B, [G,CE]2 [G,B,F]2 [_B,CG]2 | %10
[M:12/8] [F,F]-[F,-CF-][F,CF] F-[CF]F [G,B,CF][K:bass][B,CE][B,D] [C,C]-[C,-B,C-][C,B,C] | %11
 A-[CFA-][CFA] A-[DFA][_EFA] A-[FA-][FA] z F[DF] | B3 .B3 z3 F3 | E3 z3[K:treble] G3 z3 | %14
 [Ff]3 [Ff]3 .[Ff]3 [Cc]3 | A3 .A3 d3 G3 | z EE GAB c-[Fc][F^c] [Fd][Fe][Ff] | [A,FA]6 [B,EG]6 | %18
[M:9/8] [F,A,CF]8- [F,A,CF] |] %19
V:3
 z12 | z2[K:treble] .F2 .F2[K:bass] z2 .E2 .E2 | %2
 z2[K:treble] .F2 .F2[K:bass] z2[K:treble] .F2 .F2 | %3
 z2[K:treble] .F2 .F2[K:bass] z2[K:treble] .F2 .F2 | %4
[M:5/4][K:bass] z2 .[DF]2 .D2 z [E,B,][F,B,][G,B,] |[M:1/4] [F,B,][E,B,] |[M:6/4] F,,6 z2 .E2 .E2 | %7
 z2[K:treble] .F2 .F2[K:bass] z2[K:treble] .F2 .F2 | z2 ._E2 .E2 z2 .=E2 [E,,E,]2 | %9
 z2 .D2 [G,,G,]2 [C,,C,]2 [D,,D,]2 [E,,E,]2 |[M:12/8] z A,A, z A,[A,C] z G,F, z E,E, | %11
 [F,,F,]2 [E,,E,] [D,,D,]2 [C,,C,] z[K:treble] DD [DF]D[K:bass][A,,,A,,] | %12
 z DD z[K:treble] D[DG][K:bass] z [^CE][A,C] z A,A, | %13
 z F,F, z [E,G,=B,][D,G,B,] [C,E,_B,C][C,E,B,][C,E,B,] [C,E,][B,,E,][G,,E,] | %14
 F,,F,F, A,,F,F, G,,[G,B,][F,B,] [C,,C,][E,G,][E,G,] | %15
 [F,,F,]2 [E,,E,] [D,,D,]2 [C,,C,] z[K:treble] DD [DF]DD | %16
 [B,CE][B,C][B,C] [CE][K:bass][A,CE][G,CE] [A,,A,][A,,A,][A,,A,] [B,,B,][=B,,_A,][B,,F,] | %17
 C,3- C,2 F C,3- C,2 F |[M:9/8] F,,8- F,, |] %19
V:4
 x12 | F,6[K:treble] G,6 | _A,6 =A,6 | B,6 A,6 |[M:5/4] G,6[K:bass] C,4- |[M:1/4] C,2 | %6
[M:6/4] F,6[K:treble] G,6 | _A,6 =A,6 | ^F,6[K:treble] .G,6 | .D,6[K:treble] z6 | %10
[M:12/8] .[A,C]3 .[A,C]3 z3[K:bass] .[E,B,]3 | .[CF]3 .[DF]3 .[DF]3 G3 | %12
 [DG]GG [DG]GB [^CEB]AG [A,D]DD | [F,G,=B,][G,B,][G,B,] [F,G,B,D]E[K:treble]F z CC CCC | %14
 c-[A,Cc-][A,Cc-] c-[A,Cc-][A,Cc] c-[Ec-e][Dcd] z B,B, | [CF][CF][CF] [DF][DF][_EFA] [DF]FF z FF | %16
 G3 z3 .F3 z3 | x12 |[M:9/8] x9 |] %19
V:5
 x12 | F,,6[K:treble][K:bass] G,,6 | _A,,6[K:treble][K:bass] =A,,6[K:treble] | %3
 B,,6[K:treble][K:bass] A,,6[K:treble] |[M:5/4][K:bass] G,,6 z4 |[M:1/4] x2 |[M:6/4] z6 G,,6 | %7
 _A,,6[K:treble][K:bass] =A,,6[K:treble] | ^F,,6 .G,,6 | .D,,6 z6 | %10
[M:12/8] F,,3 [A,,,A,,]3 [G,,,G,,]3 C,,3 | z6 [B,,,B,,]6[K:treble][K:bass] | %12
 [G,,,G,,]3 [G,,,G,,]3[K:treble][K:bass] [A,,,A,,]3 [D,,D,]3 | G,,3 G,,3 z6 | x12 | %15
 z6 [B,,,B,,]6[K:treble] | x4[K:bass] x8 | x12 |[M:9/8] x9 |] %19

